public/avatar/hat/82.svg

<svg xmlns:xlink="http://www.w3.org/1999/xlink" height="92.9" width="100.7" xmlns="http://www.w3.org/2000/svg"><use height="18.85" transform="translate(17.2 45.2)" width="30.95" xlink:href="#a"/><defs><g id="a"><path d="m-10.05 5.05.7.2-2.25 2.65q-1.65 2.35-2.8 4.95l-1.3-.05q-2.2-1.1-3.95-3.2-2.95-3.45.85-2.9 3.75.55 8.5-1.75l.25.1" fill="#5192d2" fill-rule="evenodd" transform="translate(21.45 4.55)"/><path d="m-15.05 13.1-.25-.1-.4-.2.65.3" fill="#900" fill-rule="evenodd" transform="translate(21.45 4.55)"/><path d="m-15.05 13.1-.25-.1-.4-.2" fill="none" stroke="#00439c" stroke-linecap="round" stroke-linejoin="round" transform="translate(21.45 4.55)"/><path d="M-10.35 4.95Q-8.75.1-4.55-2.6q4.2-2.7 8.3-.35Q7.85-.65 9 4.3 6.45 6.6.8 6.8l-5.75-.55q-2.7-.35-5.1-1.2l-.25-.1h-.05" fill="#fff" fill-rule="evenodd" transform="translate(21.45 4.55)"/><path d="M-10.3 4.95q-4.75 2.3-8.5 1.75-3.8-.55-.85 2.9 1.75 2.1 3.95 3.2l1.6 1q.1-1.7 2.25-4.9l2.75-3.45 4.3.9" fill="none" stroke="#00439c" stroke-linecap="round" stroke-linejoin="round" transform="translate(21.45 4.55)"/><path d="M-10.35 4.95Q-8.75.1-4.55-2.6q4.2-2.7 8.3-.35Q7.85-.65 9 4.3 6.45 6.6.8 6.8l-5.75-.55" fill="none" stroke="#00439c" stroke-linecap="round" stroke-linejoin="round" transform="translate(21.45 4.55)"/><path d="m5.05 2.95-.2.35v.3l-.1.35L4.7 4l-5.1.55-.15-.05v-.3l.05-.05-.05-.45-.05-.25.05-.4v-.5l.1-.15.05-.05q.5-.9 1.7-1.15l.8-.1Q4.2.85 4.8 2.45v.05l.1.1.15.35" fill-rule="evenodd" transform="translate(21.45 4.55)"/></g></defs></svg>

<?xml version="1.0" encoding="UTF-8" standalone="no"?>
<svg xmlns:xlink="http://www.w3.org/1999/xlink" height="92.9px" width="100.7px" xmlns="http://www.w3.org/2000/svg">
  <g transform="matrix(1.0, 0.0, 0.0, 1.0, 38.65, 49.75)">
    <use height="18.85" transform="matrix(1.0, 0.0, 0.0, 1.0, -21.45, -4.55)" width="30.95" xlink:href="#shape0"/>
  </g>
  <defs>
    <g id="shape0" transform="matrix(1.0, 0.0, 0.0, 1.0, 21.45, 4.55)">
      <path d="M-10.05 5.05 L-9.35 5.25 -11.6 7.9 Q-13.25 10.25 -14.4 12.85 L-15.7 12.8 Q-17.9 11.7 -19.65 9.6 -22.6 6.15 -18.8 6.7 -15.05 7.25 -10.3 4.95 L-10.05 5.05" fill="#5192d2" fill-rule="evenodd" stroke="none"/>
      <path d="M-15.05 13.1 L-15.3 13.0 -15.7 12.8 -15.05 13.1" fill="#990000" fill-rule="evenodd" stroke="none"/>
      <path d="M-15.05 13.1 L-15.3 13.0 -15.7 12.8" fill="none" stroke="#00439c" stroke-linecap="round" stroke-linejoin="round" stroke-width="1.0"/>
      <path d="M-10.35 4.95 Q-8.75 0.1 -4.55 -2.6 -0.35 -5.3 3.75 -2.95 7.85 -0.65 9.0 4.3 6.45 6.6 0.8 6.8 L-4.95 6.25 Q-7.65 5.9 -10.05 5.05 L-10.3 4.95 -10.35 4.95" fill="#ffffff" fill-rule="evenodd" stroke="none"/>
      <path d="M-10.3 4.95 Q-15.05 7.25 -18.8 6.7 -22.6 6.15 -19.65 9.6 -17.9 11.7 -15.7 12.8 L-14.1 13.8 Q-14.0 12.1 -11.85 8.9 L-9.1 5.45 -4.8 6.35" fill="none" stroke="#00439c" stroke-linecap="round" stroke-linejoin="round" stroke-width="1.0"/>
      <path d="M-10.35 4.95 Q-8.75 0.1 -4.55 -2.6 -0.35 -5.3 3.75 -2.95 7.85 -0.65 9.0 4.3 6.45 6.6 0.8 6.8 L-4.95 6.25" fill="none" stroke="#00439c" stroke-linecap="round" stroke-linejoin="round" stroke-width="1.0"/>
      <path d="M5.05 2.95 L4.85 3.3 4.85 3.35 4.85 3.6 4.75 3.95 4.7 4.0 -0.4 4.55 -0.55 4.5 -0.55 4.45 -0.55 4.35 -0.55 4.2 -0.5 4.15 -0.55 3.7 -0.6 3.45 -0.55 3.05 -0.55 2.55 -0.45 2.4 -0.4 2.35 Q0.1 1.45 1.3 1.2 L2.1 1.1 Q4.2 0.85 4.8 2.45 L4.8 2.5 4.9 2.6 5.05 2.95" fill="#000000" fill-rule="evenodd" stroke="none"/>
    </g>
  </defs>
</svg>
